X: 1
T: String Quartet in A Major opus 20 no 6 mvt 2
C: Franz Joseph Haydn
%%abc-version 2.0
%%abcx-abcm2ps-target-version 5.9.1 (29 Sep 2008)
%%abc-creator hum2abc beta
%%abcx-conversion-date 2021/02/14 14:38:14
%%abc-copyright Copyright (c) 1994, 2000 Center for Computer Assisted Research in the Humanities
%%abc-edited-by Frances Bennion
%%abcx-initial-encoding-date 1997/04/15
%%gracespace 0 6 6
%%humdrum-veritas 3819995100
%%humdrum-veritas-data 1887303932
%%linebreak <none>
%%barnumbers 0
L: 1/16
M: 4/4
N: Derived from op20n6-02.krn
Q: "Adagio"
%%staves [1 2 3 4]
V: 1
V: 2
V: 3 clef=alto
V: 4 clef=bass
K: E
[V:1]B12 d4 [I:setbarnb2]|
[V:2]z2G2 z2B2 z2A2 z2F2 |
[V:3]z2B,2 z2B,2 z2D2 z2A2 |
[V:4]E,4 G,4 F,4 B,,4 |
[V:1]e2B2 B8 d4 |
[V:2]z2G2 z2B2 z2A2 z2F2 |
[V:3]z2G2 z2B,2 z2D2 z2A2 |
[V:4]E,4 G,4 F,4 B,,4 |
[V:1]edfe gfed cBAG FEDE |
[V:2]B,4 z12 |
[V:3]G4 z12 |
[V:4]E,4 z12 |
[V:1]c4 B4 z8 |
[V:2]A4 G4 z8 |
[V:3]E4 E4 z8 |
[V:4]A,,4 E,4 z8 |
[V:1](3:2:2A8- AA2c2 A2|
[V:2]z2A2 z2A2 z2A2 z2A2 |
[V:3]z2C2 z2C2 z2B,2 z2B,2 |
[V:4]F,4 E,4 D,4 D,4 |
[V:1](3:2:2G8- GG2e2 G2|
[V:2]z2G2 z2G2 z2G2 z2E2 |
[V:3]z2B,2 z2B,2 z2E2 z2B,2 |
[V:4]E,4 D,4 C,4 G,,4 |
[V:1]F6 GA C4 D4 |
[V:2]z2C2 z2C2 z2C2 z2A,2 |
[V:3]z2A,2 z2A,2 z2A,2 z2F,2 |
[V:4]A,,4 A,,4 A,,4 B,,4 |
[V:1]E4 z12 |
[V:2]z2G,2 z2E2 z2E2 z2D2 |
[V:3]z2E,2 z2C2 z2B,2 z2A,2 |
[V:4]E,4 A,,4 G,,4 F,,4 |
[V:1]B12 d4 |
[V:2]zEGE zB,BG zB,AF zFAF |
[V:3]G,4 E4 D4 A4 |
[V:4]E,,4 G,4 F,4 B,,4 |
[V:1]e2B2 B8 d4 |
[V:2]zB,GE zB,BG zB,AF zFAF |
[V:3]G4 E4 D4 A4 |
[V:4]E,,4 G,4 F,4 B,,4 |
[V:1]e8 d8 |
[V:2]zB,GE zB,GE zB,GE zB,GE |
[V:3]G8 B8 |
[V:4]E,4 E,4 E,4 E,4 |
[V:1]c8 A6 GA |
[V:2]zCAE zCAE zDAF zDAF |
[V:3]A8 F8 |
[V:4]E,4 E,4 E,4 E,4 |
[V:1]G2AB cded fegf eGA^A |
[V:2]E4 z12 |
[V:3]G4 z12 |
[V:4]E,4 z12 |
[V:1]B3A/G/ F2(3:2:2z8 z |
[V:2]G4F4 zD FB,zE C^A,|
[V:3]E4 D4 z8 |
[V:4]B,,8 B,,4 C,4 |
[V:1]f12 ^^f4 |
[V:2]B,B,FD FDEC DB,C^A, B,CB,=A, |
[V:3]B,12 B,4- |
[V:4]D,4 D,,4 z4 D,4 |
[V:1]g12 B4 |
[V:2]G,EGE GEFD ECD^B, CCGE |
[V:3]B,4 ^B,4 C4 G4 |
[V:4]E,4 E,,4 z4 E,4 |
[V:1]^A4 f4 ^e4 B4 |
[V:2]zC^AF zCAF z=DBG zDBG |
[V:3]F4 ^A4 B4 =D4 |
[V:4]F,4 F,4 F,4 F,4 |
[V:1]^A4 f4 ^e4 B4 |
[V:2]zC^AF zCAF z=DBG zDBG |
[V:3]C4 ^A4 B4 =D4 |
[V:4]F,4 F,4 F,4 F,4 |
[V:1]^A4 c4 e4 e4 |
[V:2]zC^AF zCAF zCAF zCAF |
[V:3]C4 ^A4 A4 A4 |
[V:4]F,4 F,4 F,4 F,4 |
[V:1](3e4>>^a4 c'(3e'c'a e2z6 |
[V:2]^A4 z12 |
[V:3]c4 z12 |
[V:4]F,4 z12 |
[V:1]f'8 A,6 B,A, |
[V:2]zB,BF zB,BF zB,AF zB,AF |
[V:3]B,8 F8 |
[V:4]D,4 D,4 D,4 D,4 |
[V:1]G,4 (3:2:2g4-g/^^fg fgfg ^a|
[V:2]zB,GE zB,GE C4 z4 |
[V:3]E4 E4 E4 z4 |
[V:4]E,4 E,4 E,4 z4 |
[V:1]b^^fg^a bde^f g^Bcd eBc^E |
[V:2]z16 |
[V:3]z16 |
[V:4]z16 |
[V:1]F8 c8 |
[V:2]zDBF zDBF zC^AE zCAE |
[V:3]D4 B4 C4 ^A4 |
[V:4]F,4 F,4 F,4 F,4 |
[V:1]B8- B^^fge dcB^A |
[V:2]zDBF zB,AF G4 z2E2 |
[V:3]B4 A4 G4 z2C2 |
[V:4]B,,4 D,4 E,4 F,4 |
[V:1]B8- B^^FGE DCB,^A, |
[V:2]zDBF zB,AF G4 z2E2 |
[V:3]B,4 A4 G4 z2C2 |
[V:4]B,,4 D,4 E,4 F,4 |
[V:1]^A,8 B,4 z4 |
[V:2]E8 D4 z4 |
[V:3]C8 B,4 z4 |
[V:4]B,,8- B,,4 z4 |
[V:1]B12 d4 |
[V:2]z2G2 z2B2 z2A2 z2F2 |
[V:3]z2B,2 z2B,2 z2D2 z2A2 |
[V:4]E,4 G,4 F,4 B,,4 |
[V:1]e2B4 <B4 ag afed |
[V:2]z2G2 z2B2 z2A2 z2F2 |
[V:3]z2G2 z2B,2 z2D2 z2A2 |
[V:4]E,4 G,4 F,4 B,,4 |
[V:1]eG,B,E GBeg bgfe d/e/d/e/d/e/d/e/ |
[V:2]B,4 z12 |
[V:3]G4 z12 |
[V:4]E,4 z12 |
[V:1]c4 B4 z8 |
[V:2]A4 G4 z8 |
[V:3]E4 E4 z8 |
[V:4]A,,4 E,4 z8 |
[V:1](3:2:2A8- Afda fdA|
[V:2]z2A2 z2A2 z2A2 z2A2 |
[V:3]z2C2 z2C2 z2B,2 z2B,2 |
[V:4]F,4 E,4 D,4 D,4 |
[V:1]A2G2 (3:2:2G4-G/A/B/c/ d/e/f/geB G|
[V:2]z2G2 z2G2 z2G2 z2E2 |
[V:3]z2B,2 z2B,2 z2E2 z2B,2 |
[V:4]E,4 D,4 C,4 G,,4 |
[V:1]F2GA A2Bc c2CA A2F3/D/ |
[V:2]z2F2 z2F2 z2F2 z2A,2 |
[V:3]z2C2 z2C2 z2C2 z2F,2 |
[V:4]A,,4 A,,4 A,,4 B,,4 |
[V:1]D4 E2(3:2:2z8 z |
[V:2]A,4G,2 z4 E2z2 D2|
[V:3]F,4 E,2C2 B,4 A,4 |
[V:4]E,,4- E,,2A,2 G,4 F,4 |
[V:1]B12 d4 |
[V:2]zEGB, zB,BG zB,AF zFAF |
[V:3]G,4 E4 D4 A4 |
[V:4]E,4 G,4 F,4 B,,4 |
[V:1]e2B2 (3B4>>d4 f(3agf (3c'ba(3fed |
[V:2]zB,GE zB,BG zB,DF zFAF |
[V:3]G4 E4 D4 A4 |
[V:4]E,4 G,4 F,4 B,,4 |
[V:1]e8 =d'8 |
[V:2]zB,GE zB,GE zB,GE zB,GE |
[V:3]G8 B8 |
[V:4]E,4 E,4 E,4 E,4 |
[V:1]c'8 a8 |
[V:2]zCAE zCAE zDAF zDAF |
[V:3]A8 F8 |
[V:4]E,4 E,4 E,4 E,4 |
[V:1]gbag abc'd' eBge2 <b2G |
[V:2]E4 z8 G3E |
[V:3]G4 z8 B,4 |
[V:4]E,4 z8 E,4 |
[V:1]G4 F4 z8 |
[V:2]E4 D4 zDFB, zEC^A, |
[V:3]B,8 z8 |
[V:4]B,,4 B,4 B,,4 C,4 |
[V:1]f8- fdec BbBa |
[V:2]zB,FD FDEC DB,C^A, B,4- |
[V:3]B,8 z4 B,4- |
[V:4]D,4 D,,4 z4 D,4 |
[V:1]^^f2g2 (3:2:2g4-g/ee' e'e'd'c' b|
[V:2]B,EGE GEFD ECD^B, CCGC |
[V:3]B,4 ^B,4 C4 G4 |
[V:4]E,4 E,,4 z4 E,4 |
[V:1]^a4 f4 ^e4 B4 |
[V:2]zC^AF zCAF z=DBG zDBG |
[V:3]F4 ^A4 B4 =D4 |
[V:4]F,4 F,4 F,4 F,4 |
[V:1]^A4 f4 ^e2=d'2 c'2b2 |
[V:2]zC^AF zCAF z=DBG zDBG |
[V:3]C4 ^A4 B4 =D4 |
[V:4]F,4 F,4 F,4 F,4 |
[V:1]^abc'a e2e2 (3:2:2e2-e//f/g/f/e2 e2|
[V:2]zC^AF zCAF zCAF zCAF |
[V:3]C4 ^A4 A4 A4 |
[V:4]F,4 F,4 F,4 F,4 |
[V:1]e'12 e4 |
[V:2]^A4 z12 |
[V:3]c4 z12 |
[V:4]F,4 z12 |
[V:1]f'8 A,6 B,A, |
[V:2]zB,BF zB,BF zB,AF zB,AF |
[V:3]B,8 F8 |
[V:4]D,4 D,4 D,4 D,4 |
[V:1]G,4 (3g4>>^a4 ^^f(3gaf (3gaf(3gba |
[V:2]zB,GE zB,GE C4 z4 |
[V:3]E4 E4 E4 z4 |
[V:4]E,4 E,4 E,4 z4 |
[V:1](3bde(3fg^a (3bBc(3def (3gG^A(3Bcd (3edc(3BAG |
[V:2]z16 |
[V:3]z16 |
[V:4]z16 |
[V:1]FBdf bd'f'z c8 |
[V:2]zDBF zDBF zC^AE zCAE |
[V:3]D8 E4 ^A,4 |
[V:4]F,4 F,4 F,4 F,4 |
[V:1]f12 ^a4 |
[V:2]zDBF zFfd zFec zFec |
[V:3]B,4 B,4 ^A,4 E4 |
[V:4]B,,4 D,4 C,4 F,,4 |
[V:1]b2f2 f8 ^a4 |
[V:2]zFdB zFfd zFec zcec |
[V:3]D4 B,4 ^A,4 E4 |
[V:4]B,,4 D,4 C,4 F,4 |
[V:1](3:2:2b8- ba2g2 f2|
[V:2]zF=dB zFdB zFdB zFdB |
[V:3]=D4 F4 =d8 |
[V:4]B,4 B,4 B,4 B,4 |
[V:1]^e16 |
[V:2]zGcC zGcC zGcC zGcC |
[V:3]c4 G4 ^E4 C4 |
[V:4]B,4 B,4 B,4 B,4 |
[V:1]f16 |
[V:2]zCcA zCcA zCcA zCcA |
[V:3]c4 A4 F4 C4 |
[V:4]A,4 A,4 A,4 A,4 |
[V:1]=g16 |
[V:2]zEc=G zEcG zEcG zEcG |
[V:3]e4 c4 =G4 E4 |
[V:4]A,4 A,4 A,4 A,4 |
[V:1]g8- g4 fedc |
[V:2]zEcG zEcG zEcG zEcG |
[V:3]e4 c4 G4 E4 |
[V:4]G,4 G,4 G,4 G,4 |
[V:1]c^Bed d12 |
[V:2]zD^BG zDBG zDBG zDBG |
[V:3]G4 ^B,8 D4 |
[V:4]G,4 G,4 G,4 F,4 |
[V:1]g12 c2b2 |
[V:2]zCcG zCcG zCBG zGBG |
[V:3]C4 G4 c8- |
[V:4]E,4 E,4 ^E,4 E,4 |
[V:1]a2gf f8 B2a2 |
[V:2]zCAF zCAF zB,AF zFAF |
[V:3]c4 A4 B8- |
[V:4]F,4 F,4 D,4 D,4 |
[V:1]g2fe e8 =d4 |
[V:2]zB,GE zB,GE zEBE zEBE |
[V:3]B4 G4 E4 B,4 |
[V:4]E,4 E,4 G,4 G,4 |
[V:1]c4 c'8 e4 |
[V:2]zEcA zEcA zEc^A zEcA |
[V:3]A,8 F8 |
[V:4]A,4 A,4 ^A,4 A,4 |
[V:1]d2cB B4 z8 |
[V:2]zDBF zDBF zDBF zDBF |
[V:3]F12 G2A2 |
[V:4]B,4 B,4 A,4 A,4 |
[V:1]B12 ^B4 |
[V:2]zEBG BGAF GEFD EFE=D |
[V:3]B4 E,8 E,4- |
[V:4]G,4 G,,4 G,,4 G,,4 |
[V:1]c12 ^^c4 |
[V:2]CAcA cABG AFG^E FGF=E |
[V:3]E,4 ^E,4 F,8- |
[V:4]A,,8 z4 ^A,,4 |
[V:1]d16 |
[V:2]DBdB dBc^A BGA^^F GAG^F |
[V:3]F,4 ^^F,4 G,8- |
[V:4]B,,8 z4 ^B,,4 |
[V:1]e16 |
[V:2]EGeG zAeA z^AeA zAeA |
[V:3]G,4 E,4 E4 E4 |
[V:4]C,4 C,4 C,4 C,4 |
[V:1]d4 b4 ^a4 e4 |
[V:2]zBdF zFdB z=Gec zGec |
[V:3]F4 d4 e4 =G4 |
[V:4]B,,4 B,,4 B,,4 B,,4 |
[V:1]d4 b4 ^a4 e4 |
[V:2]zFdB zFdB z=Gec zGec |
[V:3]F4 d4 e4 =G4 |
[V:4]B,,4 B,,4 B,,4 B,,4 |
[V:1]d4 f4 a4 a4 |
[V:2]zFdB zFdB zFdB zFdB |
[V:3]F4 F4 F4 F4 |
[V:4]B,,4 B,,4 B,,4 B,,4 |
[V:1]a6 bc' b4 a4 |
[V:2]d4 z12 |
[V:3]F4 z12 |
[V:4]B,,4 z12 |
[V:1]=g16- |
[V:2]zB,=GE zB,GE zB,GE zB,GE |
[V:3]E16- |
[V:4]E,4 E,4 =D,4 D,4 |
[V:1]g8 f4 e4 |
[V:2]z^A,=GE zA,GE zA,FE zA,GE |
[V:3]E8 F4 =G4 |
[V:4]=C,4 C,4 C,4 C,4 |
[V:1](3:2:2b8- bc'2d'2 e'2|
[V:2]zB,GE zB,GE zB,GE zB,GE |
[V:3]G16- |
[V:4]B,,4 B,,4 B,,4 B,,4 |
[V:1]B8 f8 |
[V:2]zGBE zBeG zFdA zFdA |
[V:3]G4 e4 F4 d4 |
[V:4]B,,4 B,,4 B,,4 B,,4 |
[V:1]e8- e^bc'a gfed |
[V:2]zGeB zE=d^B c4 z2A2 |
[V:3]E4 =d4 c4 z2A2 |
[V:4]E,4 G,4 A,4 B,4 |
[V:1]e8- e^BcA GFED |
[V:2]zGeB zE=d^B c4 z2A,2 |
[V:3]G4 =d4 c4 z2F,2 |
[V:4]E,4 G,,4 A,,4 B,,4 |
[V:1]D8 E4 z4 |]
[V:2]A,8 G,4 z4 |]
[V:3]F,8 E,4 z4 |]
[V:4]E,,8- E,,4 z4 |]

